packages/elvis-assets-icons/icons/svg/src/solar_panel-color.svg

<svg width="24" height="24" viewBox="0 0 24 24" fill="none" xmlns="http://www.w3.org/2000/svg">
<path d="M16.5 24C16.086 24 15.75 23.664 15.75 23.25V21H12.75V23.25C12.75 23.664 12.414 24 12 24C11.586 24 11.25 23.664 11.25 23.25V21H6.313C5.912 21 5.536 20.844 5.253 20.561C4.97 20.278 4.814 19.902 4.814 19.501C4.814 19.329 4.843 19.159 4.901 18.998L8.115 9.998C8.325 9.402 8.893 9 9.527 9H18.641C19.243 9 19.784 9.357 20.02 9.911L21.727 13.894C21.748 13.933 21.766 13.974 21.78 14.017L23.878 18.91C24.203 19.671 23.849 20.554 23.089 20.879C22.901 20.959 22.703 21 22.5 21H17.25V23.25C17.25 23.664 16.913 24 16.5 24ZM6.314 19.502L13.5 19.5V15H7.922L6.314 19.502ZM22.5 19.5L20.57 15H15V19.5H22.5ZM19.927 13.5L18.641 10.5H15V13.5H19.927ZM13.5 13.5V10.5H9.529L8.458 13.5H13.5Z" fill="black"/>
<path d="M4.89999 12.001C4.68799 12.001 4.48499 11.911 4.34299 11.753C3.40399 10.711 2.92799 9.366 3.00099 7.965C3.07399 6.564 3.68899 5.276 4.73099 4.338C5.69499 3.47 6.94099 2.992 8.24099 2.992C9.72899 2.992 11.152 3.624 12.145 4.726C12.394 5.002 12.613 5.305 12.797 5.627C12.897 5.801 12.922 6.003 12.87 6.196C12.818 6.389 12.693 6.551 12.519 6.65C12.406 6.715 12.277 6.749 12.146 6.749C11.878 6.749 11.628 6.605 11.495 6.372C11.364 6.143 11.207 5.926 11.029 5.729C10.32 4.942 9.30399 4.49 8.23999 4.49C7.31199 4.49 6.42099 4.831 5.73299 5.452C4.98899 6.122 4.54999 7.042 4.49799 8.043C4.44599 9.043 4.78599 10.004 5.45599 10.748C5.73199 11.055 5.70799 11.53 5.40099 11.807C5.26399 11.932 5.08499 12.001 4.89999 12.001Z" fill="black"/>
<path d="M8.25 2.25C7.836 2.25 7.5 1.914 7.5 1.5V0.75C7.5 0.336 7.836 0 8.25 0C8.663 0 9 0.336 9 0.75V1.5C9 1.914 8.663 2.25 8.25 2.25Z" fill="#29D305"/>
<path d="M13.5 4.5C13.3 4.5 13.111 4.422 12.97 4.28C12.828 4.139 12.75 3.95 12.75 3.75C12.75 3.55 12.828 3.361 12.97 3.22L13.72 2.47C13.862 2.328 14.05 2.25 14.25 2.25C14.45 2.25 14.639 2.328 14.78 2.47C14.922 2.611 15 2.8 15 3C15 3.2 14.922 3.389 14.78 3.53L14.03 4.28C13.888 4.422 13.7 4.5 13.5 4.5Z" fill="#29D305"/>
<path d="M3 4.5C2.8 4.5 2.611 4.422 2.47 4.28L1.72 3.53C1.578 3.389 1.5 3.2 1.5 3C1.5 2.8 1.578 2.611 1.72 2.47C1.861 2.328 2.05 2.25 2.25 2.25C2.45 2.25 2.639 2.328 2.78 2.47L3.53 3.22C3.672 3.361 3.75 3.55 3.75 3.75C3.75 3.95 3.672 4.139 3.53 4.28C3.388 4.422 3.2 4.5 3 4.5Z" fill="#29D305"/>
<path d="M0.75 9C0.336 9 0 8.664 0 8.25C0 7.836 0.336 7.5 0.75 7.5H1.5C1.914 7.5 2.25 7.836 2.25 8.25C2.25 8.664 1.913 9 1.5 9H0.75Z" fill="#29D305"/>
<path d="M2.25001 14.25C2.05001 14.25 1.86101 14.172 1.72001 14.03C1.42801 13.738 1.42801 13.262 1.72001 12.969L2.47001 12.219C2.61101 12.078 2.79901 12 3.00001 12C3.20001 12 3.38901 12.078 3.53001 12.22C3.82201 12.512 3.82201 12.988 3.53001 13.281L2.78001 14.031C2.63801 14.172 2.45001 14.25 2.25001 14.25Z" fill="#29D305"/>
</svg>

<svg width="24" height="24" fill="none" xmlns="http://www.w3.org/2000/svg"><path d="M16.5 24a.75.75 0 01-.75-.75V21h-3v2.25a.75.75 0 01-1.5 0V21H6.313c-.401 0-.777-.156-1.06-.439a1.489 1.489 0 01-.352-1.563l3.214-9A1.5 1.5 0 019.527 9h9.114c.602 0 1.143.357 1.379.911l1.707 3.983c.021.039.039.08.053.123l2.098 4.893A1.502 1.502 0 0122.5 21h-5.25v2.25a.75.75 0 01-.75.75zM6.314 19.502L13.5 19.5V15H7.922l-1.608 4.502zM22.5 19.5L20.57 15H15v4.5h7.5zm-2.573-6l-1.286-3H15v3h4.927zm-6.427 0v-3H9.529l-1.071 3H13.5z" fill="#000"/><path d="M4.9 12.001a.75.75 0 01-.557-.248 5.215 5.215 0 01-1.342-3.788 5.213 5.213 0 011.73-3.627 5.236 5.236 0 013.51-1.346c1.488 0 2.911.632 3.904 1.734.249.276.468.579.652.901.1.174.125.376.073.569a.749.749 0 01-1.375.176 3.758 3.758 0 00-5.762-.92 3.724 3.724 0 00-1.235 2.591c-.052 1 .288 1.961.958 2.705a.752.752 0 01-.556 1.253z" fill="#000"/><path d="M8.25 2.25a.75.75 0 01-.75-.75V.75a.75.75 0 011.5 0v.75a.75.75 0 01-.75.75zM13.5 4.5a.743.743 0 01-.53-.22.743.743 0 01-.22-.53c0-.2.078-.389.22-.53l.75-.75a.744.744 0 011.06 0c.142.141.22.33.22.53s-.078.389-.22.53l-.75.75a.744.744 0 01-.53.22zM3 4.5a.743.743 0 01-.53-.22l-.75-.75A.743.743 0 011.5 3c0-.2.078-.389.22-.53a.743.743 0 01.53-.22c.2 0 .389.078.53.22l.75.75c.142.141.22.33.22.53s-.078.389-.22.53A.744.744 0 013 4.5zM.75 9a.75.75 0 010-1.5h.75a.75.75 0 010 1.5H.75zM2.25 14.25a.752.752 0 01-.53-1.281l.75-.75A.744.744 0 013 12a.752.752 0 01.53 1.281l-.75.75a.748.748 0 01-.53.219z" fill="#29D305"/></svg>
